!!!!SEGMENT: pl-gd--ee-1638--008-008_marenzio-luca--il-quarto-libro-de-madrigalia-a-sei-voci-crudel-perche-mi-fuggi.krn
!!!cenid: 15xx:870
!!!COM: Marenzio, Luca
!!!COM-rismID: pe30003955
!!!CDT: ~1553-1599/08/22
!!!CNT: Italian
!!!GTL: Il Quarto Libro de madrigalia a sei voci
!!!OTL: Crudel perche mi fuggi
!!!OMV: 008
!!!PDT: 1587
!!!AGN:
!!!SMS-siglum: PL-GD
!!!SMS-shelfmark: Ee 1638
!!!SMS-variant:
!!!SMS-altvar:
!!!SMS-shelfwork: 008-008 G
!!!NIFC-rismSourceID: 1001202747
!!!NIFC-rismChildID: 990039254
!!!NIFC-islandoraID: pl-gd:57883
!!!URL-pdf-islandora: https://repozytorium.nifc.pl/islandora/object/pl-gd%3A57883/datastream/PDF/view
!!!URL-scan: https://polish.musicsources.pl/pl/lokalizacje/galeria/klocki-introligatorskie/655 @EN{Scan on Polish Music Sources Website} @PL{Skany w portalu Dziedzictwo Muzyki Polskiej w otwartym dostępie}
!!!ONB-nifc: UWAGA: zbiór na stronach: Canto: s. 706-716, Alto: s. 554-564, Tenore: s. 402-412, Basso: s.250-260, Quinto: s. 98-108, Sesto: s. 16-26. Uwaga: utwory podzielone wg tytułów w spisach treści dostępnych na końcu każdej księgi głosowej.
!!!AIN: 1 alto 1 bass 1 soprn 1 tenor 2 vox
!!!key: a
**kern	**text	**kern	**text	**kern	**text	**kern	**text	**kern	**text	**kern	**text
*part6	*part6	*part5	*part5	*part4	*part4	*part3	*part3	*part2	*part2	*part1	*part1
*staff6	*staff6	*staff5	*staff5	*staff4	*staff4	*staff3	*staff3	*staff2	*staff2	*staff1	*staff1
*I"SESTO	*	*I"QVINTO	*	*I"BASSO	*	*I"TENORE	*	*I"ALTO	*	*I"CANTO	*
*I'V II	*	*I'V I	*	*I'B	*	*I'T	*	*I'A	*	*I'S	*
*ICvox	*	*ICvox	*	*ICvox	*	*ICvox	*	*ICvox	*	*ICvox	*
*Ivox	*	*Ivox	*	*Ibass	*	*Itenor	*	*Ialto	*	*Isoprn	*
*clefC3	*	*clefG2	*	*clefF3	*	*clefC3	*	*clefC2	*	*clefG2	*
*k[]	*	*k[]	*	*k[]	*	*k[]	*	*k[]	*	*k[]	*
*a:	*	*a:	*	*a:	*	*a:	*	*a:	*	*a:	*
*M2/1	*	*M2/1	*	*M2/1	*	*M2/1	*	*M2/1	*	*M2/1	*
*met(C|)	*	*met(C|)	*	*met(C|)	*	*met(C|)	*	*met(C|)	*	*met(C|)	*
=1-	=1-	=1-	=1-	=1-	=1-	=1-	=1-	=1-	=1-	=1-	=1-
*xywh-#20:1041,601,3365,818	*	*xywh-#102:1142,546,3331,850	*	*xywh-#254:1409,624,3374,837	*	*xywh-#406:1368,530,3325,837	*	*xywh-#558:1268,504,3363,867	*	*xywh-#710:1304,525,3392,829	*
!LO:TX:b:i:t=CRudel.	!	!	!	!LO:TX:b:i:t=CRudel.	!	!	!	!	!	!	!
00r	.	1cc	CRu-	00r	.	1A	CRu-	2r	.	1ee	CRu-
.	.	.	.	.	.	.	.	1a	CRu-	.	.
.	.	1b	-del	.	.	1e	-del	.	.	1ee	-del
.	.	.	.	.	.	.	.	2g#X\	-del	.	.
=2-	=2-	=2-	=2-	=2-	=2-	=2-	=2-	=2-	=2-	=2-	=2-
.	.	4r	.	.	.	4r	.	4r	.	4r	.
.	.	4ee\	per-	.	.	4c/	per-	4cc\	per-	4gg\	per-
.	.	2.gg\	-che	.	.	4c/	-che	2cc\	-che	2.ee\	-che
.	.	.	.	.	.	4c/	mi	.	.	.	.
.	.	.	.	.	.	8c/	fug-	1r	.	.	.
.	.	.	.	.	.	8d\	.	.	.	.	.
.	.	4ee\	mi	.	.	8e\	.	.	.	4cc\	mi
.	.	.	.	.	.	8f\	.	.	.	.	.
.	.	2dd\	fug-	.	.	2g\	.	.	.	2b/	fug-
=3-	=3-	=3-	=3-	=3-	=3-	=3-	=3-	=3-	=3-	=3-	=3-
00r	.	2dd\	-gi	00r	.	2g\	-gi	2r	.	2b/	-gi
.	.	4r	.	.	.	4r	.	4r	.	4r	.
.	.	2cc\	S'hai	.	.	2c/	S'hai	2gny\	S'hai	2ee\	S'hai
.	.	4cc\	de	.	.	4c/	de	4g\	de	4ee\	de
.	.	2cc\	la	.	.	2c/	la	2g\	la	2ee\	la
=4-	=4-	=4-	=4-	=4-	=4-	=4-	=4-	=4-	=4-	=4-	=4-
.	.	2cc\	mor-	.	.	2f\	mor-	2a\	mor-	2ff\	mor-
.	.	1dd	-te	.	.	2d\	-te	2a\	-te	2ff\	-te
*	*	*	*	*	*	*custos:A	*	*	*	*	*
!	!	!	!	!	!	!LO:LB:g=original	!	!	!	!	!
*	*	*	*	*	*	*xywh-#406:1391,1214,3325,691	*	*	*	*	*
.	.	.	.	.	.	1A	mia	1a	mia	1ee	mia
.	.	2cc#X\	mia	.	.	.	.	.	.	.	.
*	*	*custos:ff	*	*	*	*	*	*	*	*	*
!	!	!LO:LB:g=original	!	!	!	!	!	!	!	!	!
=5-	=5-	=5-	=5-	=5-	=5-	=5-	=5-	=5-	=5-	=5-	=5-
*	*	*xywh-#102:1108,1258,3366,698	*	*	*	*	*	*	*	*	*
0r	.	4r	.	0r	.	4.d\	tan-	4.f\	tan-	4r	.
.	.	4.ff\	tan-	.	.	.	.	.	.	4.dd\	tan-
.	.	.	.	.	.	8e\	-to	8g\	-to	.	.
*	*	*	*	*	*	*	*	*custos:a	*	*	*
!	!	!	!	!	!	!	!	!LO:LB:g=original	!	!	!
*	*	*	*	*	*	*	*	*xywh-#558:1214,1210,3402,744	*	*	*
.	.	.	.	.	.	2f\	de-	1a	de-	.	.
.	.	8ee\	-to	.	.	.	.	.	.	8cc\	-to
.	.	4dd\	de-	.	.	.	.	.	.	4a/	de
*	*	*	*	*	*	*	*	*	*	*custos:b	*
!	!	!	!	!	!	!	!	!	!	!LO:LB:g=original	!
*	*	*	*	*	*	*	*	*	*	*xywh-#710:1319,1156,3377,775	*
.	.	1ee	-ſio	.	.	1e	-fi-	.	.	1b	fi-
.	.	.	.	.	.	.	.	2g#X\	-ſi-	.	.
=6-	=6-	=6-	=6-	=6-	=6-	=6-	=6-	=6-	=6-	=6-	=6-
1r	.	1ee	.	1r	.	1A	-o	1a	-o	1cc	-o
2e\	Tu	2ccny\	Tu	2A\	Tu	1r	.	2a\	Tu	1r	.
2.e\	ſei	2ee\	fei	2c\	ſei	.	.	2gny\	fei	.	.
=7-	=7-	=7-	=7-	=7-	=7-	=7-	=7-	=7-	=7-	=7-	=7-
.	.	1r	.	1r	.	2A/	Tu	1r	.	2cc\	Tu
4a\	pur	.	.	.	.	.	.	.	.	.	.
4g\	il	.	.	.	.	2c/	ſei	.	.	2ee\	fei
4f\	cor	.	.	.	.	.	.	.	.	.	.
2e\	mi-	2cc\	Tu	2A\	Tu	1r	.	2a\	Tu	2r	.
4e\	-o	2.ee\	fei	2.c\	ſei	.	.	1g\	fei	4r	.
4g\	Tu	.	.	.	.	.	.	.	.	4ee\	Tu
=8-	=8-	=8-	=8-	=8-	=8-	=8-	=8-	=8-	=8-	=8-	=8-
4c/	ſei	.	.	.	.	0r	.	.	.	2.gg\	fe-
4d\	pur	4dd\	pur	4B\	pur	.	.	.	.	.	.
4e\	il	2cc\	il	4c\	il	.	.	4g\	pur	.	.
4c/	cor	.	.	4A\	cor	.	.	4a\	il	4ff#X\	-i
*custos:g	*	*	*	*	*	*	*	*	*	*	*
!LO:LB:g=original	!	!	!	!	!	!	!	!	!	!	!
*xywh-#20:1041,1280,3358,706	*	*	*	*	*	*	*	*	*	*	*
1g	mi-	4b/	cor	1G	mi-	.	.	4d/	cor	4gg\	pur
.	.	2cc\	mi-	.	.	.	.	4.g\	mi-	4ee\	il
.	.	.	.	.	.	.	.	.	.	2dd\	cor
.	.	.	.	.	.	.	.	16f\	.	.	.
.	.	.	.	.	.	.	.	16e\	.	.	.
.	.	4b/	.	.	.	.	.	4d/	.	.	.
=9-	=9-	=9-	=9-	=9-	=9-	=9-	=9-	=9-	=9-	=9-	=9-
4e\	-o	2cc\	-o	4C/	-o	4r	.	4g\	-o	1ee	mio
4.g\	Cre-	.	.	4.c\	Cre-	4.e\	Cre-	4.cc\	Cre-	.	.
.	.	2r	.	.	.	.	.	.	.	.	.
8g\	-di	.	.	8c\	-di	8e\	-di	8cc\	-di	.	.
4g\	tu	.	.	4c\	tu	4e\	tu	4cc\	tu	.	.
*	*	*	*	*custos:d	*	*	*	*	*	*	*
!	!	!	!	!LO:LB:g=original	!	!	!	!	!	!	!
*	*	*	*	*xywh-#254:1433,1307,3320,690	*	*	*	*	*	*	*
4f\	per	1r	.	4d\	per	4d\	per	4a\	per	1r	.
4e\	fug-	.	.	4A\	fug-	4c#X/	fug-	4a\	fug-	.	.
2d\	-gi-	.	.	2B-X\	-gi-	2d\	-gi-	2g\	-gi-	.	.
*	*	*	*	*	*	*	*	*custos:a	*	*	*
!	!	!	!	!	!	!	!	!LO:LB:g=original	!	!	!
=10-	=10-	=10-	=10-	=10-	=10-	=10-	=10-	=10-	=10-	=10-	=10-
*	*	*	*	*	*	*	*	*xywh-#558:1245,1740,3371,752	*	*	*
0c#X	-re	4r	.	0A	-re	0e	-re	0a	-re	2r	.
.	.	4ee\	Cru-	.	.	.	.	.	.	.	.
.	.	2aa\	-del	.	.	.	.	.	.	4r	.
.	.	.	.	.	.	.	.	.	.	4ee\	Cru-
*	*	*custos:ee	*	*	*	*	*	*	*	*	*
!	!	!LO:LB:g=original	!	!	!	!	!	!	!	!	!
*	*	*xywh-#102:1115,1797,3345,670	*	*	*	*	*	*	*	*	*
.	.	4r	.	.	.	.	.	.	.	2aa\	-del
.	.	4ee\	Cru-	.	.	.	.	.	.	.	.
.	.	2.aa\	-del	.	.	.	.	.	.	4r	.
.	.	.	.	.	.	.	.	.	.	4ee\	Cru-
=11-	=11-	=11-	=11-	=11-	=11-	=11-	=11-	=11-	=11-	=11-	=11-
2e\	Cru-	.	.	2A\	Cru-	1r	.	2cc#X\	Cru-	2.aa\	-del
.	.	4gg\	far-	.	.	.	.	.	.	.	.
1f	-del	4ff\	-mi	2.d\	-del	.	.	2dd\	-del	.	.
.	.	4ee\	mo-	.	.	.	.	.	.	4gg\	fa-
.	.	2dd\	-ri-	.	.	1d	Cru-	2a\	Cru-	4ffny\	-rmi
.	.	.	.	4c\	far-	.	.	.	.	4ee\	mo-
*	*	*	*	*	*	*	*	*	*	*custos:dd	*
!	!	!	!	!	!	!	!	!	!	!LO:LB:g=original	!
*	*	*	*	*	*	*	*	*	*	*xywh-#710:1312,1742,3377,714	*
2f\	Cru-	2d/	-re	4B-X\	-mi	.	.	1b-X\	-del	2dd\	-ri-
.	.	.	.	4A\	mo-	.	.	.	.	.	.
=12-	=12-	=12-	=12-	=12-	=12-	=12-	=12-	=12-	=12-	=12-	=12-
*	*	*	*	*lig	*	*	*	*	*	*	*
2g\	-del	4r	.	1G	-ri-	4d\	-del	.	.	2dd\	-re
.	.	4dd\	Cru-	.	.	4g\	Cru-	.	.	.	.
*	*	*	*	*	*	*custos:g	*	*	*	*	*
!	!	!	!	!	!	!LO:LB:g=original	!	!	!	!	!
*	*	*	*	*	*	*xywh-#406:1383,1744,3325,706	*	*	*	*	*
2d\	far-	2gg\	-del	.	.	2.g\	-del	2b-yX\	far-	4r	.
.	.	.	.	.	.	.	.	.	.	4dd\	Cru-
2d\	-mi	4r	.	1A	.	.	.	1b-	-mi	2.gg\	-del
.	.	4dd\	Cru-	.	.	4f\	far-	.	.	.	.
2r	.	2.gg\	-del	.	.	4e\	-mi	.	.	.	.
.	.	.	.	.	.	4d\	mo-	.	.	4ff\	far-
*	*	*	*	*Xlig	*	*	*	*	*	*	*
=13-	=13-	=13-	=13-	=13-	=13-	=13-	=13-	=13-	=13-	=13-	=13-
1a	mo-	.	.	1D	-re	4c#X/	-ri-	2r	.	4ee\	-mi
.	.	4ff\	far-	.	.	4d\	.	.	.	4dd\	mo-
.	.	4ee\	-mi	.	.	4e\	.	2a\	mo-	4cc#X\	-ri-
.	.	4dd\	mo-	.	.	4f\	.	.	.	4dd\	.
1A	-ri-	4cc#X\	-ri-	2r	.	4e\	.	1.a	-ri-	4ee\	.
.	.	2dd\	.	.	.	4d\	.	.	.	4ff\	.
.	.	.	.	1C/	Ah	2e\	.	.	.	2ee\	.
.	.	4cc#X\	.	.	.	.	.	.	.	.	.
=14-	=14-	=14-	=14-	=14-	=14-	=14-	=14-	=14-	=14-	=14-	=14-
1A	-re	1dd	-re	.	.	1d	-re	.	.	1ff#X	-re
.	.	.	.	2r	.	.	.	2d/	-re	.	.
*custos:c	*	*custos:ee	*	*	*	*	*	*	*	*	*
!LO:LB:g=original	!	!LO:LB:g=original	!	!	!	!	!	!	!	!	!
*xywh-#20:1055,1861,3351,643	*	*xywh-#102:1129,2301,3352,705	*	*	*	*	*	*	*	*	*
2r	.	2r	.	1r	.	2r	.	2r	.	2r	.
1cny\	Ah	1ee\	Ah	.	.	1g\	Ah	1ccny\	Ah	1gg\	Ah
=15-	=15-	=15-	=15-	=15-	=15-	=15-	=15-	=15-	=15-	=15-	=15-
.	.	.	.	2r	.	.	.	.	.	.	.
4.g\	non	4.b/	non	1C	Ah	2r	.	2r	.	4.dd\	non
8g\	ſi	8b/	fi	.	.	.	.	.	.	8dd\	fi
4g\	può	4b/	può	.	.	1r	.	1r	.	4dd\	può
4a\	mo-	4a/	mo-	.	.	.	.	.	.	4ccny\	mo-
2e\	-rir	2g#X/	-rir	4.G\	non	.	.	.	.	2b/	-rir
.	.	.	.	8G\	fi	.	.	.	.	.	.
*	*	*	*	*	*	*	*	*	*	*custos:ee	*
!	!	!	!	!	!	!	!	!	!	!LO:LB:g=original	!
=16-	=16-	=16-	=16-	=16-	=16-	=16-	=16-	=16-	=16-	=16-	=16-
*	*	*	*	*	*	*	*	*	*	*xywh-#710:1319,2290,3384,669	*
2r	.	2r	.	4G\	può	2r	.	2r	.	2r	.
.	.	.	.	4A\	mo-	.	.	.	.	.	.
*	*	*	*	*custos:E	*	*	*	*	*	*	*
!	!	!	!	!LO:LB:g=original	!	!	!	!	!	!	!
*	*	*	*	*xywh-#254:1417,1834,3390,690	*	*	*	*	*	*	*
1e	Ah	1gg	Ah	4E/	-rir	1cny	Ah	1g	Ah	1ee	Ah
.	.	.	.	4.A\	ſen-	.	.	.	.	.	.
.	.	.	.	8A\	-za	.	.	.	.	.	.
.	.	.	.	4G\	do-	.	.	.	.	.	.
2r	.	4.dd\	non	1C/	-lo-	4.d\	non	4.g\	non	4.b/	non
.	.	8dd\	fi	.	.	8d\	fi	8g\	fi	8b/	fi
=17-	=17-	=17-	=17-	=17-	=17-	=17-	=17-	=17-	=17-	=17-	=17-
0r	.	4dd\	può	.	.	4d\	può	4g\	può	4b/	può
.	.	4ccny\	mo-	.	.	4A/	mo-	4e/	mo-	4a/	mo-
*	*	*	*	*	*	*	*	*custos:e	*	*	*
!	!	!	!	!	!	!	!	!LO:LB:g=original	!	!	!
*	*	*	*	*	*	*	*	*xywh-#558:1199,2255,3417,744	*	*	*
.	.	4b/	-rir	2C/	-re	4B/	-rir	4e/	-rir	4g#X/	-rir
.	.	4.cc\	ſen-	.	.	4A/	ſen-	4.e/	ſen-	4.a/	ſen-
*	*	*	*	*	*	*custos:c	*	*	*	*	*
!	!	!	!	!	!	!LO:LB:g=original	!	!	!	!	!
*	*	*	*	*	*	*xywh-#406:1375,2251,3394,683	*	*	*	*	*
.	.	.	.	1.F	E	4c/	-za	.	.	.	.
.	.	8cc\	-za	.	.	.	.	8e/	-za	8a/	-za
.	.	4dd\	do-	.	.	4B/	do-	4g\	do-	4b/	do-
.	.	1ee\	-lo-	.	.	1e\	-lo-	1g\	-lo-	2cc\	-lo-
=18-	=18-	=18-	=18-	=18-	=18-	=18-	=18-	=18-	=18-	=18-	=18-
1.c	E	.	.	.	.	.	.	.	.	0cc	-re
.	.	2ee\	-re	2E/	do-	2e\	-re	2g\	-re	.	.
.	.	1r	.	1D	-ler	2A/	E	0a	E	.	.
2B/	do-	.	.	.	.	2B/	do-	.	.	.	.
=19-	=19-	=19-	=19-	=19-	=19-	=19-	=19-	=19-	=19-	=19-	=19-
0A	-ler	1.ff	E	1.G	non	1c	-ler	.	.	1r	.
.	.	.	.	.	.	1.d	non	1a	do-	1.ffny	E
.	.	2ee\	do-	2F/	fi	.	.	.	.	.	.
*	*	*custos:dd	*	*	*	*	*	*	*	*	*
!	!	!LO:LB:g=original	!	!	!	!	!	!	!	!	!
=20-	=20-	=20-	=20-	=20-	=20-	=20-	=20-	=20-	=20-	=20-	=20-
*	*	*xywh-#102:1087,2833,3379,711	*	*	*	*	*	*	*	*	*
2B/	E	1dd	-ler	2E/	può	.	.	2d/	-ler	.	.
2c/	do-	.	.	2D/	chi	2c/	fi	1g	non	2ee\	do-
1d	-ler	1.gg	non	2C/	non	2B/	può	.	.	1dd	-ler
.	.	.	.	2D/	hà	2A/	chi	2a\	fi	.	.
=21-	=21-	=21-	=21-	=21-	=21-	=21-	=21-	=21-	=21-	=21-	=21-
1r	.	.	.	00E\	co-	1G	non	1bny	può	1.gg	non
.	.	2ff\	fi	.	.	.	.	.	.	.	.
1.g	non	2ee\	può	.	.	1G	ha	0e	chi	.	.
.	.	2dd\	chi	.	.	.	.	.	.	2ff\	fi
=22-	=22-	=22-	=22-	=22-	=22-	=22-	=22-	=22-	=22-	=22-	=22-
.	.	2cc\	non	.	.	1G	co-	.	.	2ee\	può
2f\	fi	2b/	ha	.	.	.	.	.	.	2dd\	chi
2e\	può	0.ee	co-	.	.	2G/	-re	1.g	non	2cc\	nõ(n)
*	*	*	*	*	*	*	*	*	*	*custos:b	*
!	!	!	!	!	!	!	!	!	!	!LO:LB:g=original	!
*	*	*	*	*	*	*	*	*	*	*xywh-#710:1312,2837,3384,676	*
2d\	chi	.	.	.	.	4r	.	.	.	1b\	ha-
.	.	.	.	.	.	4B/	chi	.	.	.	.
=23-	=23-	=23-	=23-	=23-	=23-	=23-	=23-	=23-	=23-	=23-	=23-
2.c/	nõ(n)	.	.	1AA	-re	2.e\	non	.	.	.	.
.	.	.	.	.	.	.	.	2a\	ha	1a	-co-
4c/	ha	.	.	.	.	4e\	hà	.	.	.	.
*custos:B	*	*	*	*	*	*	*	*	*	*	*
!LO:LB:g=original	!	!	!	!	!	!	!	!	!	!	!
*xywh-#20:1041,2378,3337,657	*	*	*	*	*	*	*	*	*	*	*
1B	co-	.	.	2r	.	1e	co-	1b	co-	.	.
.	.	.	.	1E/	Ah	.	.	.	.	2g#X/	.
*	*	*	*	*	*	*custos:e	*	*	*	*	*
!	!	!	!	!	!	!LO:LB:g=original	!	!	!	!	!
=24-	=24-	=24-	=24-	=24-	=24-	=24-	=24-	=24-	=24-	=24-	=24-
*	*	*	*	*	*	*xywh-#406:1345,2773,3371,744	*	*	*	*	*
1A	-re	1ee	-re	.	.	1e	-re	1cc#X	-re	1a	-re
.	.	.	.	2r	.	.	.	.	.	.	.
*	*	*	*	*custos:C	*	*	*	*	*	*	*
!	!	!	!	!LO:LB:g=original	!	!	!	!	!	!	!
*	*	*	*	*xywh-#254:1401,2346,3366,744	*	*	*	*	*	*	*
2r	.	2r	.	1r	.	2r	.	2r	.	2r	.
1e\	Ah	1ee\	Ah	.	.	1c\	Ah	1g\	Ah	1gg\	Ah
=25-	=25-	=25-	=25-	=25-	=25-	=25-	=25-	=25-	=25-	=25-	=25-
.	.	.	.	2r	.	.	.	.	.	.	.
2r	.	4.b/	non	1C	Ah	4.g\	non	2r	.	4.dd\	non
.	.	8b/	fi	.	.	8g\	fi	.	.	8dd\	fi
1r	.	4b/	può	.	.	4g\	puo	1r	.	4dd\	può
.	.	4a/	mo-	.	.	4a\	mo-	.	.	4cc\	mo-
.	.	2g#X/	-rir	4.G\	non	2e\	-rir	.	.	2b/	-rir
.	.	.	.	8G\	fi	.	.	.	.	.	.
=26-	=26-	=26-	=26-	=26-	=26-	=26-	=26-	=26-	=26-	=26-	=26-
2r	.	2r	.	4G\	può	2r	.	2r	.	2r	.
.	.	.	.	4A\	mo-	.	.	.	.	.	.
1c	Ah	1gg	Ah	4E/	-rir	1e	Ah	1g	Ah	1ee	Ah
.	.	.	.	4.A\	ſen-	.	.	.	.	.	.
.	.	.	.	8A\	-za	.	.	.	.	.	.
.	.	.	.	4G\	do-	.	.	.	.	.	.
*	*	*	*	*	*	*	*	*custos:g	*	*	*
!	!	!	!	!	!	!	!	!LO:LB:g=original	!	!	!
*	*	*	*	*	*	*	*	*xywh-#558:1291,2862,3340,683	*	*	*
4.d\	non	4.dd\	non	1C/	-lo-	2r	.	4.g\	non	4.b/	non
8d\	fi	8dd\	fi	.	.	.	.	8g\	fi	8b/	fi
*	*	*custos:dd	*	*	*	*	*	*	*	*	*
!	!	!LO:LB:g=original	!	!	!	!	!	!	!	!	!
=27-	=27-	=27-	=27-	=27-	=27-	=27-	=27-	=27-	=27-	=27-	=27-
*	*	*xywh-#102:1081,3400,3366,628	*	*	*	*	*	*	*	*	*
4d\	può	4dd\	può	.	.	0r	.	4g\	puo	4b/	puo
4A/	mo-	4cc\	mo-	.	.	.	.	4e/	mo-	4a/	mo-
4B/	-rir	4b/	-rir	2C/	-re	.	.	4e/	-rir	4g#X/	-rir
4A/	ſen-	4.cc\	ſen-	.	.	.	.	4.e/	ſen-	4.a/	ſen-
4c/	-za	.	.	1.F	E	.	.	.	.	.	.
.	.	8cc\	-za	.	.	.	.	8e/	-za	8a/	-za
4B/	do-	4dd\	do-	.	.	.	.	4g\	do-	4b/	do-
1e\	-lo-	1ee\	-lo-	.	.	.	.	1g\	-lo-	2cc\	-lo-
*	*	*	*	*	*	*	*	*	*	*custos:cc	*
!	!	!	!	!	!	!	!	!	!	!LO:LB:g=original	!
=28-	=28-	=28-	=28-	=28-	=28-	=28-	=28-	=28-	=28-	=28-	=28-
*	*	*	*	*	*	*	*	*	*	*xywh-#710:1289,3347,3377,714	*
.	.	.	.	.	.	1.c	E	.	.	0cc	-re
2e\	-re	2ee\	-re	2E/	do-	.	.	2g\	-re	.	.
2A/	E	1r	.	1D	-ler	.	.	0a	E	.	.
2B/	do-	.	.	.	.	2B/	do-	.	.	.	.
=29-	=29-	=29-	=29-	=29-	=29-	=29-	=29-	=29-	=29-	=29-	=29-
1c	-ler	1.ff	E	1.G	non	0A	-ler	.	.	1r	.
*custos:d	*	*	*	*	*	*	*	*	*	*	*
!LO:LB:g=original	!	!	!	!	!	!	!	!	!	!	!
*xywh-#20:1034,2938,3337,629	*	*	*	*	*	*	*	*	*	*	*
1.d	non	.	.	.	.	.	.	1a	do-	1.ff	E
.	.	2ee\	do-	2F/	fi	.	.	.	.	.	.
=30-	=30-	=30-	=30-	=30-	=30-	=30-	=30-	=30-	=30-	=30-	=30-
.	.	1dd	-ler	2E/	può	2B/	E	2d/	-ler	.	.
2c/	ſi	.	.	2D/	chi	2c/	do-	1g	non	2ee\	do-
*	*	*	*	*custos:C	*	*	*	*	*	*	*
!	!	!	!	!LO:LB:g=original	!	!	!	!	!	!	!
*	*	*	*	*xywh-#254:1425,2889,3328,705	*	*	*	*	*	*	*
2B/	può	1.gg	non	2C/	non	1d	-ler	.	.	1dd	-ler
2A/	chi	.	.	2D/	hà	.	.	2a\	fi	.	.
=31-	=31-	=31-	=31-	=31-	=31-	=31-	=31-	=31-	=31-	=31-	=31-
1G	non	.	.	00E\	co-	1r	.	1b	può	1.gg	non
.	.	2ff\	fi	.	.	.	.	.	.	.	.
1G	hà	2ee\	può	.	.	1.g	non	0e	chi	.	.
.	.	2dd\	chi	.	.	.	.	.	.	2ff\	fi
=32-	=32-	=32-	=32-	=32-	=32-	=32-	=32-	=32-	=32-	=32-	=32-
1G	co-	2cc\	non	.	.	.	.	.	.	2ee\	può
.	.	2b/	ha	.	.	2f\	fi	.	.	2dd\	chi
2G/	-re	0.ee	co-	.	.	2e\	può	1.g	non	2cc\	non
4r	.	.	.	.	.	2d\	chi	.	.	1b\	hà-
4B/	chi	.	.	.	.	.	.	.	.	.	.
*	*	*	*	*	*	*custos:c	*	*	*	*	*
!	!	!	!	!	!	!LO:LB:g=original	!	!	!	!	!
=33-	=33-	=33-	=33-	=33-	=33-	=33-	=33-	=33-	=33-	=33-	=33-
*	*	*	*	*	*	*xywh-#406:1345,3364,3356,668	*	*	*	*	*
2.e\	non	.	.	00AA	-re.	2.c/	non	.	.	.	.
.	.	.	.	.	.	.	.	2a\	hà	1a	-co-
4e\	hà	.	.	.	.	4c/	hà	.	.	.	.
1e	co-	.	.	.	.	1B	co-	1b	co-	.	.
.	.	.	.	.	.	.	.	.	.	2g#X/	.
=34-	=34-	=34-	=34-	=34-	=34-	=34-	=34-	=34-	=34-	=34-	=34-
00e	-re.	00ee	-re.	.	.	00A	-re.	00cc#X	-re	00a	-re.
=35-	=35-	=35-	=35-	=35-	=35-	=35-	=35-	=35-	=35-	=35-	=35-
.	.	.	.	0ryy	.	.	.	.	.	.	.
==	==	==	==	==	==	==	==	==	==	==	==
*-	*-	*-	*-	*-	*-	*-	*-	*-	*-	*-	*-
!!!system-decoration: [(s1,s2,s3,s4,s5,s6)]
!!!ENC: Andrzej Gręziak
!!!END: 2022-06-14
!!!ENC: Jan Barakat
!!!END: 2022-07-24
!!!YEC: Copyright 2022 Narodowy Instytut Fryderyka Chopina (https://polishscores.org)
!!!YEM: License CC-BY-4.0 (https://creativecommons.org/licenses/by/4.0)
!!!IIIF: https://repozytorium.nifc.pl/islandora/object/pl-gd%3A57883/datastream/IIIF/view
!!!ENC-iiif: Jolanta Bujas-Poniatowska
!!!END-iiif: 2022-09-23
